X: 3
T: Zheng buxia yinqian guobuliao
L: 1/16
M: 2/4
K: F
g2a4a d' [I:setbarnb 1]| 
g2 g2 f2 f d | 
d2 A2 z G> G G/ c/ | 
A8 | 
g2a4a d' | 
g2 g2 f2 f d | 
d2 A2 z G> G G/ c/ | 
d8 |]

@@@ Tune index: 8877
